assets/icons/qvision/cloud_download.svg

<svg xmlns="http://www.w3.org/2000/svg" height="24" viewBox="0 0 24 24" width="24"><path d="M0 0h24v24H0z" fill="none"/><path d="M19.35 10.04C18.67 6.59 15.64 4 12 4 9.11 4 6.6 5.64 5.35 8.04 2.34 8.36 0 10.91 0 14c0 3.31 2.69 6 6 6h13c2.76 0 5-2.24 5-5 0-2.64-2.05-4.78-4.65-4.96zM17 13l-5 5-5-5h3V9h4v4h3z"/></svg>

<svg width="24" height="24" viewBox="0 0 24 24" fill="none" xmlns="http://www.w3.org/2000/svg">
<g clip-path="url(#clip0_147_2835)">
<path d="M19.35 10.04C18.67 6.59 15.64 4 12 4C9.11 4 6.6 5.64 5.35 8.04C2.34 8.36 0 10.91 0 14C0 17.31 2.69 20 6 20H19C21.76 20 24 17.76 24 15C24 12.36 21.95 10.22 19.35 10.04ZM17 13L12 18L7 13H10V9H14V13H17Z" fill="#323232"/>
</g>
<defs>
<clipPath id="clip0_147_2835">
<rect width="24" height="24" fill="white"/>
</clipPath>
</defs>
</svg>
